X: 40047
T: Through The Wood, Laddie
R: waltz
M: 3/4
K: Fmajor
F>C|D3 F>G (G>F/4)G/4)|A4 fc|d2 (fd)(cA)|(A2G2) FG|A>G(AB)AG|(BA)(G>F)FG|
A>G(AB)AG|(BA) {A}G>F ~F>C|D2 F>G (G>F/4G/4)|A4 f>g|{fg}a>gfdcA|
G>FGABc|d2(fd)(cA)|c>d(cA)(GB)|A2 D>E (E>D/4E/4)|F4:|
|:f>c|d2 f>g (g>f/4g/4)|a4 fg|a2 (ba)(gf)|(a2g2) f>g|a>g(ab)(ag)|(ba)(gf) f>g|
a>g(ab)(ag)|(b>a)(gf) ~f>c|d2 f>g (g>f/4g/4)|a4 f>g|a>gfdcA|G3 ABc|
c2 (fd)(cA)|~c>d(cA)(GB)|A2D2 (E>D/4E/4)|F4:|

